svg/color/iog.svg

<?xml version="1.0" encoding="UTF-8" ?>
<!DOCTYPE svg PUBLIC "-//W3C//DTD SVG 1.1//EN" "http://www.w3.org/Graphics/SVG/1.1/DTD/svg11.dtd">
<svg width="250pt" height="250pt" viewBox="0 0 250 250" version="1.1" xmlns="http://www.w3.org/2000/svg">
<g id="#ffffffff">
<path fill="#ffffff" opacity="1.00" d=" M 0.00 0.00 L 250.00 0.00 L 250.00 250.00 L 0.00 250.00 L 0.00 0.00 M 165.12 6.13 C 161.68 11.71 158.81 17.77 157.12 24.12 C 162.23 25.63 167.07 27.87 171.79 30.33 C 173.38 31.27 175.18 31.58 177.01 31.65 C 178.42 24.17 184.80 17.89 183.31 9.97 C 181.42 7.06 178.99 3.21 175.08 3.33 C 171.60 3.27 167.23 2.65 165.12 6.13 M 110.38 30.58 C 96.83 32.75 83.61 37.50 72.21 45.23 C 64.66 49.79 58.55 56.20 52.42 62.44 C 40.04 76.16 32.81 93.85 29.70 111.91 C 29.15 118.26 29.45 124.64 29.40 131.00 C 29.14 139.30 31.47 147.38 34.05 155.19 C 41.43 179.06 59.57 198.80 81.53 210.26 C 92.63 215.47 104.61 219.55 116.97 219.79 C 121.94 220.90 127.10 220.72 132.06 219.68 C 140.38 219.86 148.49 217.55 156.33 215.00 C 176.55 207.86 193.88 193.49 205.52 175.58 C 212.14 164.36 217.00 152.01 218.83 139.08 C 220.20 132.13 219.38 125.02 219.60 118.00 C 219.12 108.84 216.83 99.84 213.74 91.23 C 203.64 64.25 180.56 42.43 153.03 33.94 C 144.66 30.99 135.78 30.29 127.02 29.49 C 121.41 29.02 115.97 30.57 110.38 30.58 M 66.57 231.99 C 65.99 235.29 66.10 238.70 66.55 242.01 C 67.92 244.69 70.77 246.93 73.93 246.69 C 77.37 246.73 81.73 247.26 83.82 243.84 C 87.26 238.18 89.85 231.98 92.08 225.76 C 85.36 223.89 79.32 220.37 72.81 217.96 C 70.39 222.48 68.42 227.22 66.57 231.99 Z" />
</g>
<g id="#100a26ff">
<path fill="#100a26" opacity="1.00" d=" M 165.12 6.13 C 167.23 2.65 171.60 3.27 175.08 3.33 C 178.99 3.21 181.42 7.06 183.31 9.97 C 184.80 17.89 178.42 24.17 177.01 31.65 C 175.18 31.58 173.38 31.27 171.79 30.33 C 167.07 27.87 162.23 25.63 157.12 24.12 C 158.81 17.77 161.68 11.71 165.12 6.13 Z" />
<path fill="#100a26" opacity="1.00" d=" M 110.38 30.58 C 115.97 30.57 121.41 29.02 127.02 29.49 C 135.78 30.29 144.66 30.99 153.03 33.94 C 180.56 42.43 203.64 64.25 213.74 91.23 C 216.83 99.84 219.12 108.84 219.60 118.00 C 219.38 125.02 220.20 132.13 218.83 139.08 C 217.00 152.01 212.14 164.36 205.52 175.58 C 193.88 193.49 176.55 207.86 156.33 215.00 C 148.49 217.55 140.38 219.86 132.06 219.68 C 127.10 220.72 121.94 220.90 116.97 219.79 C 104.61 219.55 92.63 215.47 81.53 210.26 C 59.57 198.80 41.43 179.06 34.05 155.19 C 31.47 147.38 29.14 139.30 29.40 131.00 C 29.45 124.64 29.15 118.26 29.70 111.91 C 32.81 93.85 40.04 76.16 52.42 62.44 C 58.55 56.20 64.66 49.79 72.21 45.23 C 83.61 37.50 96.83 32.75 110.38 30.58 M 121.00 53.23 C 105.01 89.94 89.10 126.69 73.16 163.43 C 71.73 166.89 69.57 170.20 69.26 174.01 C 73.59 179.62 79.34 183.93 85.22 187.80 C 89.50 180.11 92.33 171.74 96.00 163.76 C 111.97 127.56 127.36 91.10 143.32 54.90 C 143.15 54.50 142.82 53.70 142.66 53.30 C 137.26 51.56 131.54 51.32 125.94 50.71 C 123.95 50.36 121.63 51.13 121.00 53.23 M 89.11 59.94 C 75.95 67.00 65.05 78.24 58.36 91.59 C 51.02 105.71 48.69 122.30 51.54 137.92 C 52.38 142.12 52.67 146.76 55.82 150.02 C 67.31 122.79 79.37 95.82 90.98 68.65 C 92.60 65.21 94.16 61.72 94.98 57.99 C 92.96 58.43 90.93 58.92 89.11 59.94 M 162.92 62.06 C 161.39 66.23 159.74 70.35 157.75 74.33 C 156.83 76.72 154.98 79.17 155.55 81.83 C 159.31 85.62 163.59 88.93 166.71 93.33 C 171.24 99.07 174.28 105.85 176.01 112.94 C 183.13 115.77 190.05 119.10 197.24 121.74 C 197.56 121.34 198.20 120.53 198.52 120.13 C 197.27 104.43 191.20 89.05 181.04 76.97 C 175.60 71.38 170.24 65.20 162.92 62.06 M 137.63 121.39 C 135.75 125.24 134.28 129.29 132.36 133.12 C 131.55 134.96 130.32 136.77 130.54 138.87 C 141.36 144.26 152.59 148.84 163.77 153.45 C 165.26 154.18 167.34 154.85 166.57 156.95 C 157.74 168.78 143.78 176.53 129.05 177.64 C 123.84 177.95 118.63 177.32 113.43 177.51 C 111.96 179.13 111.38 181.31 110.53 183.27 C 108.92 187.53 106.89 191.64 105.44 195.95 L 105.69 196.72 C 112.90 198.98 120.53 198.80 128.00 198.74 C 142.27 198.57 156.16 193.34 167.80 185.26 C 180.86 175.56 191.15 161.78 195.53 146.03 C 196.25 144.32 193.82 143.79 192.81 143.09 C 175.92 135.52 158.87 128.29 141.89 120.94 C 140.63 120.57 138.15 119.58 137.63 121.39 Z" />
<path fill="#100a26" opacity="1.00" d=" M 66.57 231.99 C 68.42 227.22 70.39 222.48 72.81 217.96 C 79.32 220.37 85.36 223.89 92.08 225.76 C 89.85 231.98 87.26 238.18 83.82 243.84 C 81.73 247.26 77.37 246.73 73.93 246.69 C 70.77 246.93 67.92 244.69 66.55 242.01 C 66.10 238.70 65.99 235.29 66.57 231.99 Z" />
</g>
<g id="#5ac4dcff">
<path fill="#5ac4dc" opacity="1.00" d=" M 121.00 53.23 C 121.63 51.13 123.95 50.36 125.94 50.71 C 131.54 51.32 137.26 51.56 142.66 53.30 C 142.82 53.70 143.15 54.50 143.32 54.90 C 127.36 91.10 111.97 127.56 96.00 163.76 C 92.33 171.74 89.50 180.11 85.22 187.80 C 79.34 183.93 73.59 179.62 69.26 174.01 C 69.57 170.20 71.73 166.89 73.16 163.43 C 89.10 126.69 105.01 89.94 121.00 53.23 Z" />
</g>
<g id="#f95150ff">
<path fill="#f95150" opacity="1.00" d=" M 89.11 59.94 C 90.93 58.92 92.96 58.43 94.98 57.99 C 94.16 61.72 92.60 65.21 90.98 68.65 C 79.37 95.82 67.31 122.79 55.82 150.02 C 52.67 146.76 52.38 142.12 51.54 137.92 C 48.69 122.30 51.02 105.71 58.36 91.59 C 65.05 78.24 75.95 67.00 89.11 59.94 Z" />
</g>
<g id="#f5a160ff">
<path fill="#f5a160" opacity="1.00" d=" M 162.92 62.06 C 170.24 65.20 175.60 71.38 181.04 76.97 C 191.20 89.05 197.27 104.43 198.52 120.13 C 198.20 120.53 197.56 121.34 197.24 121.74 C 190.05 119.10 183.13 115.77 176.01 112.94 C 174.28 105.85 171.24 99.07 166.71 93.33 C 163.59 88.93 159.31 85.62 155.55 81.83 C 154.98 79.17 156.83 76.72 157.75 74.33 C 159.74 70.35 161.39 66.23 162.92 62.06 Z" />
</g>
<g id="#fdc351ff">
<path fill="#fdc351" opacity="1.00" d=" M 137.63 121.39 C 138.15 119.58 140.63 120.57 141.89 120.94 C 158.87 128.29 175.92 135.52 192.81 143.09 C 193.82 143.79 196.25 144.32 195.53 146.03 C 191.15 161.78 180.86 175.56 167.80 185.26 C 156.16 193.34 142.27 198.57 128.00 198.74 C 120.53 198.80 112.90 198.98 105.69 196.72 L 105.44 195.95 C 106.89 191.64 108.92 187.53 110.53 183.27 C 111.38 181.31 111.96 179.13 113.43 177.51 C 118.63 177.32 123.84 177.95 129.05 177.64 C 143.78 176.53 157.74 168.78 166.57 156.95 C 167.34 154.85 165.26 154.18 163.77 153.45 C 152.59 148.84 141.36 144.26 130.54 138.87 C 130.32 136.77 131.55 134.96 132.36 133.12 C 134.28 129.29 135.75 125.24 137.63 121.39 Z" />
</g>
</svg>

<?xml version="1.0" encoding="utf-8"?>
<!-- Generator: Adobe Illustrator 26.0.3, SVG Export Plug-In . SVG Version: 6.00 Build 0)  -->
<svg version="1.1" id="Layer_1" xmlns="http://www.w3.org/2000/svg" xmlns:xlink="http://www.w3.org/1999/xlink" x="0px" y="0px"
	 viewBox="0 0 250 250" style="enable-background:new 0 0 250 250;" xml:space="preserve">
<style type="text/css">
	.st0{fill:#100A26;}
	.st1{fill:#5AC4DC;}
	.st2{fill:#F95150;}
	.st3{fill:#F5A160;}
	.st4{fill:#FDC351;}
</style>
<g id="_x23_100a26ff">
	<path class="st0" d="M165.1,6.1c2.1-3.5,6.5-2.9,10-2.8c3.9-0.1,6.3,3.7,8.2,6.6c1.5,7.9-4.9,14.2-6.3,21.7
		c-1.8-0.1-3.6-0.4-5.2-1.3c-4.7-2.5-9.6-4.7-14.7-6.2C158.8,17.8,161.7,11.7,165.1,6.1z"/>
	<path class="st0" d="M110.4,30.6c5.6,0,11-1.6,16.6-1.1c8.8,0.8,17.6,1.5,26,4.4c27.5,8.5,50.6,30.3,60.7,57.3
		c3.1,8.6,5.4,17.6,5.9,26.8c-0.2,7,0.6,14.1-0.8,21.1c-1.8,12.9-6.7,25.3-13.3,36.5c-11.6,17.9-29,32.3-49.2,39.4
		c-7.8,2.6-15.9,4.9-24.3,4.7c-5,1-10.1,1.2-15.1,0.1c-12.4-0.2-24.3-4.3-35.4-9.5c-22-11.5-40.1-31.2-47.5-55.1
		c-2.6-7.8-4.9-15.9-4.6-24.2c0.1-6.4-0.2-12.7,0.3-19.1C32.8,93.8,40,76.2,52.4,62.4c6.1-6.2,12.2-12.6,19.8-17.2
		C83.6,37.5,96.8,32.8,110.4,30.6 M121,53.2c-16,36.7-31.9,73.5-47.8,110.2c-1.4,3.5-3.6,6.8-3.9,10.6c4.3,5.6,10.1,9.9,16,13.8
		c4.3-7.7,7.1-16.1,10.8-24c16-36.2,31.4-72.7,47.3-108.9c-0.2-0.4-0.5-1.2-0.7-1.6c-5.4-1.7-11.1-2-16.7-2.6
		C123.9,50.4,121.6,51.1,121,53.2 M89.1,59.9C75.9,67,65.1,78.2,58.4,91.6c-7.3,14.1-9.7,30.7-6.8,46.3c0.8,4.2,1.1,8.8,4.3,12.1
		C67.3,122.8,79.4,95.8,91,68.7c1.6-3.4,3.2-6.9,4-10.7C93,58.4,90.9,58.9,89.1,59.9 M162.9,62.1c-1.5,4.2-3.2,8.3-5.2,12.3
		c-0.9,2.4-2.8,4.8-2.2,7.5c3.8,3.8,8,7.1,11.2,11.5c4.5,5.7,7.6,12.5,9.3,19.6c7.1,2.8,14,6.2,21.2,8.8c0.3-0.4,1-1.2,1.3-1.6
		c-1.2-15.7-7.3-31.1-17.5-43.2C175.6,71.4,170.2,65.2,162.9,62.1 M137.6,121.4c-1.9,3.8-3.4,7.9-5.3,11.7c-0.8,1.8-2,3.7-1.8,5.8
		c10.8,5.4,22.1,10,33.2,14.6c1.5,0.7,3.6,1.4,2.8,3.5c-8.8,11.8-22.8,19.6-37.5,20.7c-5.2,0.3-10.4-0.3-15.6-0.1
		c-1.5,1.6-2.1,3.8-2.9,5.8c-1.6,4.3-3.6,8.4-5.1,12.7l0.2,0.8c7.2,2.3,14.8,2.1,22.3,2c14.3-0.2,28.2-5.4,39.8-13.5
		c13.1-9.7,23.3-23.5,27.7-39.2c0.7-1.7-1.7-2.2-2.7-2.9c-16.9-7.6-33.9-14.8-50.9-22.1C140.6,120.6,138.1,119.6,137.6,121.4z"/>
	<path class="st0" d="M66.6,232c1.8-4.8,3.8-9.5,6.2-14c6.5,2.4,12.6,5.9,19.3,7.8c-2.2,6.2-4.8,12.4-8.3,18.1
		c-2.1,3.4-6.4,2.9-9.9,2.9c-3.2,0.2-6-2-7.4-4.7C66.1,238.7,66,235.3,66.6,232z"/>
</g>
<g id="_x23_5ac4dcff">
	<path class="st1" d="M121,53.2c0.6-2.1,2.9-2.9,4.9-2.5c5.6,0.6,11.3,0.9,16.7,2.6c0.2,0.4,0.5,1.2,0.7,1.6
		c-16,36.2-31.4,72.7-47.3,108.9c-3.7,8-6.5,16.4-10.8,24c-5.9-3.9-11.6-8.2-16-13.8c0.3-3.8,2.5-7.1,3.9-10.6
		C89.1,126.7,105,89.9,121,53.2z"/>
</g>
<g id="_x23_f95150ff">
	<path class="st2" d="M89.1,59.9c1.8-1,3.8-1.5,5.9-1.9c-0.8,3.7-2.4,7.2-4,10.7C79.4,95.8,67.3,122.8,55.8,150
		c-3.2-3.3-3.4-7.9-4.3-12.1c-2.9-15.6-0.5-32.2,6.8-46.3C65.1,78.2,75.9,67,89.1,59.9z"/>
</g>
<g id="_x23_f5a160ff">
	<path class="st3" d="M162.9,62.1c7.3,3.1,12.7,9.3,18.1,14.9c10.2,12.1,16.2,27.5,17.5,43.2c-0.3,0.4-1,1.2-1.3,1.6
		c-7.2-2.6-14.1-6-21.2-8.8c-1.7-7.1-4.8-13.9-9.3-19.6c-3.1-4.4-7.4-7.7-11.2-11.5c-0.6-2.7,1.3-5.1,2.2-7.5
		C159.7,70.3,161.4,66.2,162.9,62.1z"/>
</g>
<g id="_x23_fdc351ff">
	<path class="st4" d="M137.6,121.4c0.5-1.8,3-0.8,4.3-0.4c17,7.3,34,14.6,50.9,22.1c1,0.7,3.4,1.2,2.7,2.9
		c-4.4,15.8-14.7,29.5-27.7,39.2c-11.6,8.1-25.5,13.3-39.8,13.5c-7.5,0.1-15.1,0.2-22.3-2l-0.2-0.8c1.4-4.3,3.5-8.4,5.1-12.7
		c0.8-2,1.4-4.1,2.9-5.8c5.2-0.2,10.4,0.4,15.6,0.1c14.7-1.1,28.7-8.9,37.5-20.7c0.8-2.1-1.3-2.8-2.8-3.5
		c-11.2-4.6-22.4-9.2-33.2-14.6c-0.2-2.1,1-3.9,1.8-5.8C134.3,129.3,135.8,125.2,137.6,121.4z"/>
</g>
</svg>
